coreui/free/cil-grain.svg

<svg xmlns="http://www.w3.org/2000/svg" viewBox="0 0 512 512">
  <path fill="var(--ci-primary-color, currentColor)" d="M88,16a56,56,0,1,0,56,56A56.063,56.063,0,0,0,88,16Zm0,80a24,24,0,1,1,24-24A24.028,24.028,0,0,1,88,96Z" class="ci-primary"/>
  <path fill="var(--ci-primary-color, currentColor)" d="M200,138.667a56,56,0,1,0,56,56A56.063,56.063,0,0,0,200,138.667Zm0,80a24,24,0,1,1,24-24A24.028,24.028,0,0,1,200,218.667Z" class="ci-primary"/>
  <path fill="var(--ci-primary-color, currentColor)" d="M88,373.333a56,56,0,1,0-56-56A56.063,56.063,0,0,0,88,373.333Zm0-80a24,24,0,1,1-24,24A24.028,24.028,0,0,1,88,293.333Z" class="ci-primary"/>
  <path fill="var(--ci-primary-color, currentColor)" d="M200,496a56,56,0,1,0-56-56A56.063,56.063,0,0,0,200,496Zm0-80a24,24,0,1,1-24,24A24.028,24.028,0,0,1,200,416Z" class="ci-primary"/>
  <path fill="var(--ci-primary-color, currentColor)" d="M312,16a56,56,0,1,0,56,56A56.063,56.063,0,0,0,312,16Zm0,80a24,24,0,1,1,24-24A24.028,24.028,0,0,1,312,96Z" class="ci-primary"/>
  <path fill="var(--ci-primary-color, currentColor)" d="M424,138.667a56,56,0,1,0,56,56A56.063,56.063,0,0,0,424,138.667Zm0,80a24,24,0,1,1,24-24A24.028,24.028,0,0,1,424,218.667Z" class="ci-primary"/>
  <path fill="var(--ci-primary-color, currentColor)" d="M312,373.333a56,56,0,1,0-56-56A56.063,56.063,0,0,0,312,373.333Zm0-80a24,24,0,1,1-24,24A24.028,24.028,0,0,1,312,293.333Z" class="ci-primary"/>
  <path fill="var(--ci-primary-color, currentColor)" d="M424,384a56,56,0,1,0,56,56A56.063,56.063,0,0,0,424,384Zm0,80a24,24,0,1,1,24-24A24.028,24.028,0,0,1,424,464Z" class="ci-primary"/>
</svg>

<svg viewBox="0 0 512 512" xmlns="http://www.w3.org/2000/svg"><g><path d="M88 16v0c-30.93 0-56 25.07-56 56 0 30.92 25.07 56 56 56 30.92 0 56-25.08 56-56v0c-.04-30.92-25.09-55.97-56-56Zm0 80v0c-13.26 0-24-10.75-24-24 0-13.26 10.74-24 24-24 13.25 0 24 10.74 24 24v0c-.02 13.24-10.76 23.98-24 24Z"/><path d="M200 138.667v0c-30.93 0-56 25.07-56 56 0 30.92 25.07 56 56 56 30.92 0 56-25.08 56-56v0c-.04-30.92-25.09-55.97-56-56Zm0 80v0c-13.26 0-24-10.75-24-24 0-13.26 10.74-24 24-24 13.25 0 24 10.74 24 24v-.001c-.02 13.24-10.76 23.98-24 24Z"/><path d="M88 373.33v0c30.92 0 56-25.08 56-56 0-30.93-25.08-56-56-56 -30.93 0-56 25.07-56 56v0c.03 30.91 25.08 55.96 56 56Zm0-80v0c13.25 0 24 10.74 24 24 0 13.25-10.75 24-24 24 -13.26 0-24-10.75-24-24v0c.01-13.25 10.75-23.99 24-24Z"/><path d="M200 496v0c30.92 0 56-25.08 56-56 0-30.93-25.08-56-56-56 -30.93 0-56 25.07-56 56v0c.03 30.91 25.08 55.96 56 56Zm0-80v0c13.25 0 24 10.74 24 24 0 13.25-10.75 24-24 24 -13.26 0-24-10.75-24-24v0c.01-13.25 10.75-23.99 24-24Z"/><path d="M312 16v0c-30.93 0-56 25.07-56 56 0 30.92 25.07 56 56 56 30.92 0 56-25.08 56-56v0c-.04-30.92-25.09-55.97-56-56Zm0 80v0c-13.26 0-24-10.75-24-24 0-13.26 10.74-24 24-24 13.25 0 24 10.74 24 24v0c-.02 13.24-10.76 23.98-24 24Z"/><path d="M424 138.667v0c-30.93 0-56 25.07-56 56 0 30.92 25.07 56 56 56 30.92 0 56-25.08 56-56v0c-.04-30.92-25.09-55.97-56-56Zm0 80v0c-13.26 0-24-10.75-24-24 0-13.26 10.74-24 24-24 13.25 0 24 10.74 24 24v-.001c-.02 13.24-10.76 23.98-24 24Z"/><path d="M312 373.33v0c30.92 0 56-25.08 56-56 0-30.93-25.08-56-56-56 -30.93 0-56 25.07-56 56v0c.03 30.91 25.08 55.96 56 56Zm0-80v0c13.25 0 24 10.74 24 24 0 13.25-10.75 24-24 24 -13.26 0-24-10.75-24-24v0c.01-13.25 10.75-23.99 24-24Z"/><path d="M424 384v0c-30.93 0-56 25.07-56 56 0 30.92 25.07 56 56 56 30.92 0 56-25.08 56-56v0c-.04-30.92-25.09-55.97-56-56Zm0 80v0c-13.26 0-24-10.75-24-24 0-13.26 10.74-24 24-24 13.25 0 24 10.74 24 24v-.001c-.02 13.24-10.76 23.98-24 24Z"/></g></svg>
